X:3597
T:Cucanandy
R:slip jig
D:Cran: The Crooked Stair
Z:id:hn-slipjig-44
M:9/8
K:Edor
~B3 B2A G2A|B2d d2c d3|~B3 B2A G2A|B2e e2d e3:|
|:e2f g2f g3|B2d d2c d3|1 e2f g2f g3|B2e e2d e3:|2 e2B B2A G2A|B2e e2d e3||


